X:874
T:Susie Brodie
R:Strathspey
C:Niel Gow
B:The Athole Collection
M:C
L:1/8
K:G
g|d<G B>G c<=F A>g|d<G B>G d<G B>G|c<aB<g c>=F A<c|
d>cB>A d<GB<g:|
G<gB<g c<=F A>c|G<gB<g G<g BG|c<aB<g c<=F A>c|
d>cB>A d>G B<g|G<gB<g c<=F A>c|G<gB<g d<gB<g|
(3cac (3BgB c<=F A>c|c>dB>A d<GB<g||

